packages/foundations/assets/icons/functional/images/audio & video/fast_backward_10_14.svg

<svg width="14" height="14" viewBox="0 0 14 14" fill="none" xmlns="http://www.w3.org/2000/svg">
<g clip-path="url(#clip0_184_236)">
<path fill-rule="evenodd" clip-rule="evenodd" d="M10.984 10.833C10.534 10.833 10.26 10.45 10.26 10.163C10.26 9.83498 10.78 9.04298 10.78 8.15398C10.78 6.26898 9.34398 4.84798 7.59498 4.68398L8.07398 5.13398C8.18298 5.27098 8.27898 5.44898 8.27898 5.62598C8.27898 5.98198 7.95098 6.29598 7.58198 6.29598C7.39574 6.29826 7.21585 6.22838 7.07998 6.10098L5.55598 4.56398C5.43147 4.42962 5.36406 4.25212 5.36798 4.06898C5.36798 3.89098 5.43698 3.74098 5.55798 3.61798L7.10398 2.05998C7.16562 1.99522 7.23977 1.94365 7.32194 1.90841C7.4041 1.87317 7.49258 1.85499 7.58198 1.85498C7.76659 1.85577 7.94342 1.92946 8.07396 2.06C8.2045 2.19054 8.27819 2.36737 8.27898 2.55198C8.27879 2.64136 8.26054 2.72978 8.22531 2.81192C8.19008 2.89407 8.13861 2.96824 8.07398 3.02998L7.75898 3.34398C8.95705 3.45442 10.0704 4.00939 10.8797 4.89962C11.6891 5.78985 12.1358 6.95084 12.132 8.15398L12.126 8.37298C12.077 9.35998 11.707 10.833 10.984 10.833ZM2.57898 12.145H3.93098C4.32798 12.145 4.60098 11.817 4.60098 11.461C4.60098 11.092 4.30098 10.778 3.91798 10.778V8.08598C3.91931 7.96433 3.8871 7.84467 3.82488 7.74014C3.76266 7.6356 3.67283 7.55023 3.56527 7.4934C3.45771 7.43657 3.33657 7.41048 3.21514 7.41799C3.09372 7.4255 2.97672 7.46633 2.87698 7.53598L2.17098 8.00698C2.07816 8.06732 2.00184 8.14985 1.94894 8.24711C1.89604 8.34436 1.86821 8.45327 1.86798 8.56398C1.86798 8.96098 2.19598 9.26098 2.57798 9.24798V10.778C2.19598 10.778 1.90898 11.092 1.90898 11.475C1.90898 11.83 2.19598 12.145 2.57898 12.145ZM7.18398 7.34798C8.30398 7.34798 9.06898 8.14098 9.06898 9.35698V10.122C9.06898 11.352 8.27698 12.145 7.11498 12.145C6.06298 12.145 5.29798 11.338 5.29798 10.15V9.30198C5.29798 8.14098 6.08998 7.34798 7.18398 7.34798ZM7.16998 8.71198L7.11098 8.71398C6.84298 8.73098 6.66398 8.82898 6.66398 9.28898V10.149C6.66398 10.628 6.81398 10.774 7.18398 10.767C7.51198 10.761 7.68898 10.6 7.68898 10.109V9.34298C7.68898 8.76898 7.41698 8.70598 7.16998 8.71198Z" fill="#1A1C1F"/>
</g>
<defs>
<clipPath id="clip0_184_236">
<rect width="14" height="14" fill="white"/>
</clipPath>
</defs>
</svg>

<svg xmlns="http://www.w3.org/2000/svg" width="14" height="14" fill="none"><g clip-path="url(#a)"><path fill="#1A1C1F" fill-rule="evenodd" d="M10.984 10.833c-.45 0-.724-.383-.724-.67 0-.328.52-1.12.52-2.009 0-1.885-1.436-3.306-3.185-3.47l.479.45c.109.137.205.315.205.492 0 .356-.328.67-.697.67a.72.72 0 0 1-.502-.195L5.556 4.564a.7.7 0 0 1-.188-.495c0-.178.069-.328.19-.451L7.104 2.06a.66.66 0 0 1 .478-.205.7.7 0 0 1 .697.697.66.66 0 0 1-.205.478l-.315.314a4.815 4.815 0 0 1 4.373 4.81l-.006.219c-.049.987-.419 2.46-1.142 2.46m-8.405 1.312h1.352c.397 0 .67-.328.67-.684 0-.369-.3-.683-.683-.683V8.086a.662.662 0 0 0-1.041-.55l-.706.471a.67.67 0 0 0-.303.557c0 .397.328.697.71.684v1.53c-.382 0-.669.314-.669.697 0 .355.287.67.67.67m4.605-4.797c1.12 0 1.885.793 1.885 2.009v.765c0 1.23-.792 2.023-1.954 2.023-1.052 0-1.817-.807-1.817-1.995v-.848c0-1.161.792-1.954 1.886-1.954M7.17 8.712l-.059.002c-.268.017-.447.115-.447.575v.86c0 .479.15.625.52.618.328-.006.505-.167.505-.658v-.766c0-.574-.272-.637-.519-.631" clip-rule="evenodd"/></g><defs><clipPath id="a"><path fill="#fff" d="M0 0h14v14H0z"/></clipPath></defs></svg>
